X: 8514
T: Creel Of Turf, The
R: jig
M: 6/8
K: Adorian
Aee edc|BGB dcB|Aee Aee|dcB c2B|
Aee edc|BGB def|g2g ege|dcB A2G:|
eaa aga|bab ged|eaa aga|bgf g2g|
eaa aga|bab ged|deg ceg|dcB A2A:|

